packages/eui/src/components/icon/svgs/contrast.svg

<svg width="16" height="16" viewBox="0 0 16 16" xmlns="http://www.w3.org/2000/svg">
<path fill-rule="evenodd" clip-rule="evenodd" d="M8 15C11.866 15 15 11.866 15 8C15 4.13401 11.866 1 8 1C4.13401 1 1 4.13401 1 8C1 11.866 4.13401 15 8 15ZM8.5 13.5H10.4017C10.9767 13.2486 11.5046 12.9096 11.9687 12.5H8.5V13.5ZM8.5 11.5H12.874C13.0986 11.1878 13.2939 10.8531 13.456 10.5H8.5V11.5ZM8.5 9.5H13.811C13.8943 9.17642 13.9512 8.84229 13.9795 8.5H8.5V9.5ZM8.5 7.5H13.9795C13.9512 7.15771 13.8943 6.82358 13.811 6.5H8.5V7.5ZM8.5 5.5H13.456C13.2939 5.14689 13.0986 4.81221 12.874 4.5H8.5V5.5ZM8.5 3.5H11.9687C11.5046 3.09038 10.9767 2.75143 10.4017 2.5H8.5V3.5ZM2 8C2 4.85467 4.42023 2.27461 7.5 2.02054L7.5 13.9795C4.42023 13.7254 2 11.1453 2 8Z"/>
</svg>

<svg xmlns="http://www.w3.org/2000/svg" width="16" height="16" viewBox="0 0 16 16">
  <path fill-rule="evenodd" d="M8 15A7 7 0 1 0 8 1a7 7 0 0 0 0 14Zm.5-1.5h1.902a6.004 6.004 0 0 0 1.567-1H8.5v1Zm0-2h4.374c.225-.312.42-.647.582-1H8.5v1Zm0-2h5.311a6 6 0 0 0 .168-1H8.5v1Zm0-2h5.48a5.988 5.988 0 0 0-.169-1H8.5v1Zm0-2h4.956a5.996 5.996 0 0 0-.582-1H8.5v1Zm0-2h3.469a6.004 6.004 0 0 0-1.567-1H8.5v1ZM2 8a6 6 0 0 1 5.5-5.98v11.96A6 6 0 0 1 2 8Z" clip-rule="evenodd"/>
</svg>
